paymentMethods/paysafecard.svg

<svg width="128" height="64" viewBox="0 0 128 64" fill="none" xmlns="http://www.w3.org/2000/svg">
<rect width="128" height="64" rx="6" fill="white"/>
<path d="M26.8987 30.95C26.9104 30.87 26.9043 30.7884 26.8807 30.7111C26.8571 30.6338 26.8166 30.5627 26.7622 30.503C26.7078 30.4432 26.6408 30.3962 26.5661 30.3655C26.4913 30.3347 26.4107 30.3209 26.3299 30.3251H24.3618C24.1788 30.318 24.0004 30.3837 23.8658 30.5079C23.7311 30.632 23.6511 30.8044 23.6433 30.9874C23.6396 31.016 23.6396 31.0449 23.6433 31.0735V34.6169C23.6371 34.7208 23.6538 34.8247 23.6921 34.9213C23.7305 35.018 23.7895 35.1051 23.8652 35.1764C23.9408 35.2478 24.0312 35.3017 24.1299 35.3343C24.2286 35.367 24.3333 35.3775 24.4366 35.3653H26.2401C26.3291 35.367 26.4173 35.3487 26.4982 35.3118C26.5792 35.2749 26.6508 35.2203 26.7079 35.152C26.7705 35.1039 26.8205 35.0413 26.8538 34.9696C26.887 34.898 26.9024 34.8193 26.8987 34.7404V30.95ZM21.1176 30.4486C21.0804 29.7259 21.2932 29.0124 21.7201 28.428C21.9387 28.2228 22.1921 28.0581 22.4684 27.9416C22.7569 27.8073 23.0707 27.7359 23.3889 27.7321H26.9997C28.5912 27.7321 29.4007 28.6051 29.4281 30.3513V35.6721C29.4211 35.9724 29.3539 36.2681 29.2305 36.5419C29.1071 36.8157 28.93 37.062 28.7097 37.2661C28.4972 37.4908 28.2415 37.6702 27.9579 37.7937C27.6744 37.9171 27.3688 37.982 27.0596 37.9846H23.6433V41.8236H21.1176V30.4486Z" fill="#008AC9"/>
<path d="M33.9857 34.8789C33.985 34.9502 34.0033 35.0204 34.0389 35.0822C34.0744 35.1441 34.1258 35.1953 34.1877 35.2306C34.3149 35.3386 34.4774 35.3959 34.6442 35.3915H36.5862C37.024 35.3915 37.2522 35.2194 37.2635 34.8789V34.153C37.2635 33.7563 37.0315 33.558 36.5675 33.558H34.6442C34.4613 33.5407 34.2776 33.5827 34.1204 33.6778C34.0077 33.8432 33.9597 34.0443 33.9857 34.2428V34.8789ZM37.2635 30.8752C37.2635 30.501 37.0502 30.3027 36.5862 30.3139H31.4974V27.7321H37.2261C38.8949 27.7582 39.7405 28.5627 39.7705 30.1567V35.5823C39.7784 36.2087 39.553 36.8156 39.1381 37.2848C38.9306 37.5146 38.6754 37.6963 38.3904 37.8172C38.1054 37.938 37.7974 37.9952 37.488 37.9846H34.0231C32.3393 37.9846 31.4812 37.2137 31.4487 35.6721V33.5805C31.4487 31.979 32.2632 31.1658 33.8921 31.1408H37.2597V30.8752" fill="#008AC9"/>
<path d="M46.8611 39.2306C47.0531 39.2231 47.2362 39.1475 47.3775 39.0173C47.4396 38.9672 47.49 38.904 47.5249 38.8322C47.5598 38.7604 47.5785 38.6818 47.5795 38.602V37.9846H44.3466C44.0025 37.9988 43.659 37.9441 43.3363 37.8237C43.036 37.7033 42.7644 37.521 42.5393 37.2886C42.303 37.0414 42.1174 36.7503 41.993 36.4317C41.8688 36.0994 41.8104 35.7461 41.8209 35.3915V27.7321H44.3466V34.5683C44.3466 35.1183 44.5711 35.3915 45.0239 35.3915H46.79C46.9952 35.3943 47.1935 35.3179 47.3438 35.1782C47.4112 35.1283 47.4661 35.0634 47.5044 34.9888C47.5427 34.9142 47.5633 34.8318 47.5646 34.7479V27.7321H50.0716V39.0323C50.0916 39.7569 49.8646 40.4667 49.428 41.0453C49.2184 41.2975 48.9542 41.4987 48.6553 41.6336C48.3564 41.7684 48.0308 41.8334 47.703 41.8236H41.8209V39.2306H46.8611Z" fill="#008AC9"/>
<path d="M52.0697 35.3915H56.5598C56.9714 35.3915 57.1847 35.2119 57.1997 34.8938V34.6619C57.1972 34.5846 57.1767 34.509 57.1398 34.4411C57.0388 34.2428 56.9153 34.1455 56.7656 34.1455H54.5206C53.8867 34.1454 53.2771 33.9016 52.8181 33.4645C52.5898 33.2864 52.4042 33.0596 52.2748 32.8007C52.1453 32.5418 52.0752 32.2572 52.0697 31.9678V30.037C52.0946 28.5253 52.9153 27.757 54.5318 27.7321H59.7516V30.3251H55.3625C54.8424 30.3251 54.5804 30.486 54.5804 30.8003V31.0548C54.5804 31.384 54.8499 31.5487 55.3812 31.5487H57.6038C57.8929 31.5487 58.1788 31.6093 58.443 31.7266C58.7073 31.8439 58.944 32.0153 59.1379 32.2297C59.5565 32.6554 59.7939 33.2267 59.8002 33.8237V35.7133C59.7514 36.3175 59.4856 36.8837 59.0519 37.3073C58.8582 37.5347 58.6185 37.7184 58.3484 37.8461C58.0264 37.9517 57.688 37.9985 57.3494 37.9846H52.0697V35.3915Z" fill="#008AC9"/>
<path d="M64.107 34.8789C64.1063 34.9502 64.1247 35.0204 64.1602 35.0822C64.1957 35.1441 64.2471 35.1953 64.3091 35.2306C64.4362 35.3386 64.5988 35.3959 64.7656 35.3915H66.7076C67.1491 35.3915 67.3736 35.2194 67.3848 34.8789V34.153C67.3848 33.7563 67.1528 33.558 66.6888 33.558H64.7506C64.5677 33.5407 64.384 33.5827 64.2268 33.6778C64.118 33.8407 64.0702 34.0368 64.0921 34.2315L64.107 34.8789ZM67.3699 30.8752C67.3699 30.501 67.1566 30.3027 66.6888 30.3139H61.6187V27.7321H67.3474C69.0162 27.7582 69.8619 28.5627 69.8881 30.1567V35.5823C69.893 36.2109 69.662 36.8184 69.2408 37.2848C69.034 37.5145 68.7795 37.6962 68.4951 37.8171C68.2106 37.9379 67.9032 37.9951 67.5944 37.9846H64.1295C62.4457 37.9846 61.5913 37.2137 61.5663 35.6721V33.5805C61.5663 31.979 62.3808 31.1658 64.0097 31.1408H67.3773V30.8752" fill="#008AC9"/>
<path d="M71.9423 26.2616C71.9374 25.9399 72.0048 25.6213 72.1395 25.3293C72.2742 25.0372 72.4728 24.7791 72.7206 24.574C73.2645 24.1276 73.9518 23.8937 74.6551 23.9155H76.2566V26.4225H75.2875C74.7524 26.4225 74.4793 26.6881 74.468 27.1708V27.7321H76.2566V30.3289H74.4793V37.9846H71.9536V26.2616" fill="#008AC9"/>
<path d="M83.4596 30.8377V30.7779C83.4628 30.7135 83.4494 30.6493 83.4205 30.5916C83.3917 30.5339 83.3484 30.4846 83.2949 30.4486C83.1673 30.3619 83.0151 30.3186 82.8609 30.3251H81.1022C80.9017 30.316 80.7056 30.3858 80.5559 30.5197C80.4757 30.5694 80.4095 30.6389 80.3637 30.7214C80.3179 30.8039 80.2939 30.8968 80.294 30.9912V32.0314L83.4596 30.8377ZM80.3314 34.5047V34.6693C80.3228 34.8476 80.3816 35.0226 80.4961 35.1595C80.5231 35.2256 80.5685 35.2825 80.6268 35.3236C80.6852 35.3647 80.754 35.3883 80.8253 35.3915H86.0115V37.9846H80.4661C80.071 37.9986 79.676 37.9519 79.2949 37.8461C78.9814 37.7394 78.6953 37.5646 78.4572 37.3343C78.2192 37.104 78.035 36.8239 77.918 36.514C77.8016 36.1273 77.7497 35.724 77.7646 35.3204V30.1268C77.7895 28.5552 78.609 27.757 80.2229 27.7321H83.6279C85.1995 27.757 85.9977 28.5839 86.0227 30.2129V32.2671L80.3239 34.5122" fill="#008AC9"/>
<path d="M91.3585 37.9846C91.0056 37.9877 90.6534 37.9551 90.3071 37.8873C89.9403 37.8169 89.5969 37.6562 89.308 37.4196C88.9849 37.1494 88.7374 36.8 88.5896 36.4056C88.4466 36.0034 88.3769 35.5788 88.3838 35.1521V30.3102C88.3655 29.958 88.406 29.6052 88.5035 29.2662C88.6084 28.9351 88.7905 28.6337 89.0348 28.3869C89.2982 28.1103 89.626 27.9033 89.989 27.7845C90.3421 27.7016 90.7039 27.6614 91.0666 27.6647H94.9394V28.2559H91.1564C90.6012 28.2251 90.0503 28.3691 89.5811 28.6675C89.1883 28.9669 88.9899 29.4833 88.9899 30.2129V35.0772C88.9903 35.4136 89.042 35.748 89.1434 36.0688C89.2315 36.3775 89.4057 36.6547 89.6456 36.868C89.8854 37.0814 90.181 37.2221 90.4979 37.2737C90.7922 37.3334 91.0918 37.3635 91.3922 37.3635H94.9993V37.9846H91.3585" fill="#008AC9"/>
<path d="M104.896 31.7022H99.8186C99.5551 31.6944 99.2927 31.7405 99.0476 31.8377C98.8024 31.9348 98.5797 32.081 98.393 32.2672C98.026 32.6768 97.8351 33.2145 97.8617 33.7639V35.3092C97.8585 35.5855 97.8912 35.8609 97.9589 36.1287C98.0302 36.4106 98.1952 36.66 98.4267 36.8359C98.8318 37.1842 99.3479 37.3766 99.8822 37.3785H102.954C104.241 37.3785 104.889 36.6862 104.889 35.3429L104.896 31.7022ZM105.499 35.1933C105.501 35.5392 105.474 35.8848 105.416 36.226C105.326 36.5755 105.154 36.8987 104.915 37.1689C104.665 37.4393 104.359 37.6523 104.018 37.7931C103.678 37.934 103.311 37.9993 102.943 37.9846H99.9234C99.5743 37.9995 99.2258 37.9453 98.8977 37.8252C98.5696 37.7051 98.2684 37.5215 98.0113 37.2849C97.7561 37.0367 97.5571 36.7365 97.428 36.4046C97.2989 36.0728 97.2426 35.7171 97.263 35.3616V33.8013C97.2892 32.0427 98.1647 31.1372 99.8822 31.0997H104.911V30.415C104.923 29.8748 104.75 29.3468 104.421 28.9183C104.24 28.6648 103.987 28.4718 103.695 28.3645C103.387 28.289 103.07 28.2526 102.752 28.256H97.2742V27.6648H102.472C102.905 27.6615 103.338 27.6941 103.766 27.7621C103.963 27.8024 104.15 27.8813 104.316 27.9941C104.511 28.1181 104.68 28.2781 104.814 28.4655C105.276 29.0559 105.518 29.7889 105.499 30.5385V35.1933" fill="#008AC9"/>
<path d="M111.175 28.256C109.766 28.2834 109.073 29.0518 109.098 30.5609V37.9847H108.492V30.5797C108.465 28.6339 109.391 27.6623 111.272 27.6648H111.942V28.256H111.175Z" fill="#008AC9"/>
<path d="M121.398 28.2746H116.612C116.298 28.2706 115.984 28.3083 115.68 28.3868C115.354 28.4711 115.062 28.6556 114.846 28.9144C114.621 29.1289 114.456 29.3985 114.367 29.6964C114.272 30.0013 114.233 30.3207 114.251 30.6394V35.3653C114.251 36.151 114.479 36.6824 114.943 36.9705C115.175 37.1087 115.428 37.2097 115.691 37.2698C115.996 37.3483 116.309 37.386 116.623 37.3821H118.715C119.394 37.4123 120.065 37.2219 120.627 36.8395C121.121 36.499 121.375 35.9116 121.375 35.0771L121.398 28.2746ZM122 35.1183C121.948 37.0715 120.914 38.0294 118.898 37.992H116.653C116.226 37.9958 115.799 37.9544 115.381 37.8685C114.984 37.7561 114.624 37.5386 114.34 37.2389C114.057 36.9393 113.859 36.5686 113.768 36.166C113.675 35.7994 113.636 35.4213 113.652 35.0435V30.6244C113.677 28.6288 114.675 27.6434 116.646 27.6684H121.394V24.3008H122V35.1183Z" fill="#008AC9"/>
<path d="M7.08966 27.3392C7.28094 27.2517 7.48017 27.1828 7.68461 27.1334C7.86421 26.2704 8.33561 25.4955 9.01949 24.9393C9.70337 24.3831 10.558 24.0795 11.4395 24.0795C12.321 24.0795 13.1756 24.3831 13.8595 24.9393C14.5434 25.4955 15.0148 26.2704 15.1944 27.1334C15.7175 27.2196 16.2046 27.4547 16.5975 27.8106C16.6119 27.4908 16.5981 27.1702 16.5564 26.8527C16.4378 25.5535 15.8301 24.3479 14.8562 23.4798C13.8824 22.6117 12.6151 22.146 11.3108 22.1769C10.0066 22.2078 8.76279 22.733 7.83114 23.6463C6.89949 24.5595 6.34956 25.7926 6.29266 27.096C6.27769 27.3452 6.27769 27.5951 6.29266 27.8443C6.53309 27.6391 6.80144 27.469 7.08966 27.3392" fill="#E3001B"/>
<path d="M14.4423 27.7321H8.27582C7.95761 27.736 7.64385 27.8074 7.35534 27.9417C7.08047 28.0609 6.82752 28.2253 6.60698 28.4281C6.18335 29.0141 5.97098 29.7264 6.00455 30.4487V35.2681C5.96588 35.9881 6.17448 36.6997 6.59575 37.2849C6.81345 37.4933 7.06697 37.6606 7.34411 37.7788C7.62876 37.9085 7.93691 37.9785 8.24963 37.9846H14.4423C16.0363 37.9846 16.8557 37.0978 16.8557 35.3654V30.3476C16.8333 28.614 16.0238 27.7409 14.4273 27.7284" fill="#E3001B"/>
</svg>

<svg xmlns="http://www.w3.org/2000/svg" width="128" height="64" fill="none"><rect width="128" height="64" fill="#fff" rx="6"/><path fill="#008AC9" d="M26.899 30.95a.547.547 0 0 0-.57-.625h-1.967a.692.692 0 0 0-.719.662.335.335 0 0 0 0 .087v3.543a.711.711 0 0 0 .794.748h1.803a.595.595 0 0 0 .468-.213.49.49 0 0 0 .19-.412v-3.79Zm-5.781-.501a3.151 3.151 0 0 1 .602-2.021c.219-.205.472-.37.748-.486.289-.135.603-.206.92-.21H27c1.591 0 2.4.873 2.428 2.62v5.32a2.244 2.244 0 0 1-.718 1.594 2.297 2.297 0 0 1-1.65.719h-3.417v3.839h-2.525V30.449ZM33.986 34.879a.4.4 0 0 0 .202.352c.127.108.29.165.456.16h1.942c.438 0 .666-.172.678-.512v-.726c0-.397-.233-.595-.697-.595h-1.923a.856.856 0 0 0-.524.12.815.815 0 0 0-.134.565v.636Zm3.278-4.004c0-.374-.214-.572-.678-.561h-5.089v-2.582h5.73c1.668.026 2.514.83 2.544 2.425v5.425a2.522 2.522 0 0 1-.633 1.703 2.126 2.126 0 0 1-1.65.7h-3.465c-1.684 0-2.542-.771-2.574-2.313v-2.091c0-1.602.814-2.415 2.443-2.44h3.368v-.266M46.861 39.23a.809.809 0 0 0 .517-.213.543.543 0 0 0 .202-.415v-.617h-3.233a2.585 2.585 0 0 1-1.01-.161c-.301-.12-.573-.303-.798-.535a2.618 2.618 0 0 1-.546-.857 2.74 2.74 0 0 1-.172-1.04v-7.66h2.526v6.836c0 .55.224.824.677.824h1.766a.797.797 0 0 0 .554-.214.546.546 0 0 0 .22-.43v-7.016h2.508v11.3a3.196 3.196 0 0 1-.644 2.013 2.16 2.16 0 0 1-1.725.779h-5.882V39.23h5.04ZM52.07 35.392h4.49c.411 0 .625-.18.64-.498v-.232a.496.496 0 0 0-.06-.22c-.101-.2-.225-.297-.374-.297H54.52a2.47 2.47 0 0 1-1.703-.68 1.944 1.944 0 0 1-.748-1.497v-1.931c.025-1.512.845-2.28 2.462-2.305h5.22v2.593h-4.39c-.52 0-.782.161-.782.475v.255c0 .329.27.494.801.494h2.223a2.068 2.068 0 0 1 1.534.68c.419.426.656.998.662 1.595v1.89a2.51 2.51 0 0 1-.748 1.593 2.107 2.107 0 0 1-.704.54c-.322.105-.66.151-.999.138h-5.28v-2.593ZM64.107 34.879a.4.4 0 0 0 .202.352c.127.108.29.165.457.16h1.942c.441 0 .666-.172.677-.512v-.726c0-.397-.232-.595-.696-.595H64.75a.856.856 0 0 0-.524.12.83.83 0 0 0-.135.553l.015.648Zm3.263-4.004c0-.374-.213-.572-.681-.561h-5.07v-2.582h5.728c1.67.026 2.515.83 2.541 2.425v5.425a2.51 2.51 0 0 1-.647 1.703 2.119 2.119 0 0 1-1.647.7H64.13c-1.683 0-2.538-.771-2.563-2.313v-2.091c0-1.602.815-2.415 2.444-2.44h3.367v-.266M71.942 26.262a2.148 2.148 0 0 1 .779-1.688 2.907 2.907 0 0 1 1.934-.659h1.602v2.508h-.97c-.535 0-.808.265-.819.748v.561h1.789v2.597h-1.778v7.656h-2.525V26.262M83.46 30.838v-.06a.374.374 0 0 0-.165-.33.718.718 0 0 0-.434-.123h-1.759a.767.767 0 0 0-.546.195.553.553 0 0 0-.262.471v1.04l3.166-1.193Zm-3.129 3.667v.164a.71.71 0 0 0 .165.49.374.374 0 0 0 .33.233h5.186v2.593h-5.546a3.866 3.866 0 0 1-1.171-.139 2.246 2.246 0 0 1-1.377-1.332 3.671 3.671 0 0 1-.153-1.194v-5.193c.025-1.572.844-2.37 2.458-2.395h3.405c1.572.025 2.37.852 2.395 2.48v2.055l-5.7 2.245M91.359 37.985a5.232 5.232 0 0 1-1.052-.098 2.244 2.244 0 0 1-.999-.467c-.323-.27-.57-.62-.718-1.014a3.57 3.57 0 0 1-.206-1.254V30.31a3.18 3.18 0 0 1 .12-1.044 2.19 2.19 0 0 1 .53-.88 2.31 2.31 0 0 1 .955-.601 4.534 4.534 0 0 1 1.078-.12h3.872v.59h-3.783a2.66 2.66 0 0 0-1.575.413c-.393.299-.591.815-.591 1.545v4.864c0 .337.052.671.153.992a1.69 1.69 0 0 0 1.355 1.205c.294.06.594.09.894.09H95v.62h-3.64M104.896 31.702h-5.077a1.936 1.936 0 0 0-1.426.565c-.367.41-.558.947-.531 1.497v1.545c-.003.277.03.552.097.82.071.282.236.531.468.707.405.348.92.54 1.455.543h3.072c1.287 0 1.935-.693 1.935-2.036l.007-3.64Zm.603 3.491c.002.346-.025.692-.083 1.033-.09.35-.262.673-.501.943a2.544 2.544 0 0 1-1.972.816h-3.02a2.654 2.654 0 0 1-1.912-.7 2.484 2.484 0 0 1-.748-1.923v-1.56c.026-1.76.902-2.665 2.62-2.702h5.028v-.685a2.371 2.371 0 0 0-.49-1.497 1.548 1.548 0 0 0-.726-.553 3.792 3.792 0 0 0-.943-.109h-5.478v-.591h5.198c.433-.003.866.03 1.294.097.197.04.384.12.55.232.195.124.364.284.498.471a3.23 3.23 0 0 1 .685 2.073v4.655M111.175 28.256c-1.409.027-2.102.796-2.077 2.305v7.424h-.606V30.58c-.027-1.946.899-2.918 2.78-2.915h.67v.591h-.767ZM121.398 28.275h-4.786a3.55 3.55 0 0 0-.932.112 1.612 1.612 0 0 0-.834.527c-.225.215-.39.484-.479.782a2.665 2.665 0 0 0-.116.943v4.726c0 .786.228 1.317.692 1.605.232.139.485.24.748.3.305.078.618.116.932.112h2.092a3.15 3.15 0 0 0 1.912-.542c.494-.341.748-.928.748-1.763l.023-6.802Zm.602 6.843c-.052 1.953-1.086 2.911-3.102 2.874h-2.245a6.056 6.056 0 0 1-1.272-.123 2.296 2.296 0 0 1-1.613-1.703 3.895 3.895 0 0 1-.116-1.122v-4.42c.025-1.995 1.023-2.98 2.994-2.956h4.748v-3.367H122v10.817Z"/><path fill="#E3001B" d="M7.09 27.34c.19-.088.39-.157.595-.207a3.835 3.835 0 0 1 7.51 0c.522.087 1.01.322 1.402.678.015-.32.001-.64-.04-.958a5.145 5.145 0 0 0-10.264.243c-.015.25-.015.5 0 .748.24-.205.508-.375.797-.505"/><path fill="#E3001B" d="M14.442 27.732H8.276a2.246 2.246 0 0 0-.92.21c-.276.119-.528.283-.749.486a3.196 3.196 0 0 0-.602 2.02v4.82c-.04.72.17 1.432.59 2.017.218.208.472.376.75.494.284.13.592.2.905.206h6.192c1.594 0 2.414-.887 2.414-2.62v-5.017c-.023-1.734-.832-2.607-2.429-2.62"/></svg>
